svgs/light/arrow-down-triangle-square.svg

<svg xmlns="http://www.w3.org/2000/svg" viewBox="0 0 512 512"><!--! Font Awesome Pro 6.3.0 by @fontawesome - https://fontawesome.com License - https://fontawesome.com/license (Commercial License) Copyright 2023 Fonticons, Inc. --><path d="M432 288l-96-.0107c-26.51 0-48 21.49-48 48v95.99c0 26.51 21.49 48 48 48l96 .0098c26.51 0 48-21.5 48-48.01v-95.99C480 309.5 458.5 288 432 288zM448 431.1c0 8.824-7.178 16-16 16h-96c-8.822 0-16-7.176-16-16v-95.99c0-8.824 7.178-16 16-16h96c8.822 0 16 7.176 16 16V431.1zM492.1 182.9l-83.13-137.1C403.4 36.58 393.7 31.99 384 31.99s-19.34 4.591-24.91 13.78l-83.25 137.1c-11 18.25 2.75 41.12 25 41.12h166.3C489.4 224 503.1 201.1 492.1 182.9zM307.8 192l76.29-125.6L460.2 192H307.8zM224 352c-4.094 0-8.188 1.562-11.31 4.688L144 425.4V48c0-8.844-7.156-15.1-16-15.1S112 39.16 112 48v377.4l-68.69-68.69c-6.25-6.25-16.38-6.25-22.62 0s-6.25 16.38 0 22.62l96 96c6.25 6.25 16.38 6.25 22.62 0l96-96c6.25-6.25 6.25-16.38 0-22.62C232.2 353.6 228.1 352 224 352z"/></svg>

<svg xmlns="http://www.w3.org/2000/svg" viewBox="0 0 512 512"><!-- Font Awesome Pro 6.0.0-alpha2 by @fontawesome - https://fontawesome.com License - https://fontawesome.com/license (Commercial License) --><path d="M432.008 287.992H336.006C309.496 287.992 288.006 309.484 288.006 335.992V431.98C288.006 458.492 309.496 479.98 336.006 479.98H432.008C458.518 479.98 480.008 458.492 480.008 431.98V335.992C480.008 309.484 458.518 287.992 432.008 287.992ZM448.008 431.98C448.008 440.805 440.83 447.98 432.008 447.98H336.006C327.184 447.98 320.006 440.805 320.006 431.98V335.992C320.006 327.168 327.184 319.992 336.006 319.992H432.008C440.83 319.992 448.008 327.168 448.008 335.992V431.98ZM492.133 182.875L409.006 45.762C403.443 36.574 393.756 31.98 384.068 31.98S364.693 36.574 359.131 45.762L275.881 182.875C264.881 201.125 278.631 224 300.881 224H467.131C489.383 224 503.133 201.125 492.133 182.875ZM307.777 192L384.066 66.352L460.244 192H307.777ZM224 352C219.906 352 215.812 353.562 212.687 356.688L144 425.375V48C144 39.156 136.844 32 128 32S112 39.156 112 48V425.375L43.312 356.688C37.062 350.438 26.937 350.438 20.687 356.688S14.437 373.063 20.687 379.312L116.687 475.312C122.937 481.562 133.063 481.562 139.312 475.312L235.312 379.312C241.562 373.062 241.562 362.937 235.312 356.688C232.187 353.562 228.094 352 224 352Z"/></svg>
